!!!SOCIAL_FUNCTION: drunken-man dance songs
!!!SOCIAL_FUNCTION2: tick dance song
!!!PDT:	1943
!!!LING_GROUP: Muskogean
!!!LANG: Non-Tone
Specific Region: Oklahoma, California, Mississippi, Louisiana, Texas, Alabama
!!!REG: Southeast
!!!COM: Anon.
!!!OTL: Tick Dance Song (k)
!!!ODT: <1933//
!!!MPN: Olman Comby
!!!MLC: Philadelphia, Mississippi, United States of America
!! Song was recorded in January 1933.
!!!AGN: monody
!!!AMT: irregular
!!!RWG: Transcribed pitches, durations, and meters are only approximate.
**kern
*ICvox
*Imale
*clefF4
*k[f#c#g#d#]
*M2/4
*MM66
=1-
4r
8r
8G#
=2
8.B
16B
8B
8G#
*M3/4
=3
32B
16.B
16G#
16F#
8.E
16E
4C#
=4
32G#
16.G#
16G#
16F#
8F#
8F#
4F#
*M7/8
=5
16F#
16E
16C#
16BB
8BB
8BB
8BB
8r
8BB
*M2/4
=6
8.E
16E
8E
8F#
*M3/4
=7
32G#
16.G#
16G#
16F#
8.E
16E
8C#
8r
=8
16G#
16G#
16G#
16F#
4F#
4F#
=9
16F#
16E
16C#
16BB
8BB
8BB
8BB
8r
*M2/4
=10
16G#
16G#
8B
8B
16G#
16G#
*M3/4
=11
8B
8G#
8F#
16E
16E
4E
=12
8BB
8E
4C#
8BB
8r
*M2/4
=13
8BB
16.E
32F#
4F#
=14
8G#
8G#
8F#
16.E
32C#
=15
4E
8BB
8E
*M5/8
=16
4C#
8BB
8r
8BB
=17
!! returning to the beginning
4r
8r
8G#
=18
8.B
16B
8B
8G#
*M3/4
=19
32B
16.B
16G#
16F#
8.E
16E
4C#
=20
32G#
16.G#
16G#
16F#
8F#
8F#
4F#
*M7/8
=21
16F#
16E
16C#
16BB
8BB
8BB
8BB
8r
8BB
*M2/4
=22
8.E
16E
8E
8F#
*M3/4
=23
32G#
16.G#
16G#
16F#
8.E
16E
8C#
8r
=24
16G#
16G#
16G#
16F#
4F#
4F#
=25
16F#
16E
16C#
16BB
8BB
8BB
8BB
8r
==
*-
!!!CNT: Choctaw
!!!TXO: Choctaw
!!!OCY: United States
!!!OCL: Frances Densmore
!!!YOR: Frances Densmore, "Choctaw Music"
!!!YOR: Bulletin 136, page 143, No. 20
!!!PPR: Smithsonian Institution, Bureau of American Ethnology
!!!PPR: Government Printing Office
!!!PDT: 1943
!!!PPP: Washington, DC, United States of America
!!!YEC: Electronic Copyright 2000 David Huron
!!!YER: August 2000
!!!YEN: United States of America
!!!ENC: David Huron
!!!RDT: August 27, 2000
!!!EEV: Release 1.0
!!!AIN: vox
